assets/src/images/icons/ic_econom.svg

<svg width="102" height="102" viewBox="0 0 102 102" fill="none" xmlns="http://www.w3.org/2000/svg">
<g filter="url(#filter0_d)">
<path fill-rule="evenodd" clip-rule="evenodd" d="M46.5703 30.8203C46.5703 30.3673 46.9376 30 47.3906 30C47.8436 30 48.2109 30.3673 48.2109 30.8203V32.2148C48.2109 32.6679 47.8436 33.0352 47.3906 33.0352C46.9376 33.0352 46.5703 32.6679 46.5703 32.2148V30.8203ZM54.6348 32.0491C54.4823 31.8966 54.2706 31.8088 54.0549 31.8088C53.8391 31.8088 53.6275 31.8966 53.4749 32.0491C53.3223 32.2017 53.2346 32.4134 53.2346 32.6291C53.2346 32.8457 53.3223 33.0565 53.4749 33.2091C53.6275 33.3616 53.8391 33.4494 54.0549 33.4494C54.2706 33.4494 54.4823 33.3616 54.6348 33.2091C54.7873 33.0565 54.8752 32.8448 54.8752 32.6291C54.8752 32.4134 54.7873 32.2025 54.6348 32.0491ZM53.2347 35.6054C53.2347 35.1524 53.602 34.7851 54.055 34.7851C54.508 34.7851 54.8753 35.1525 54.8753 35.6054V38.8592C54.8753 39.3123 54.5079 39.6795 54.055 39.6795C53.602 39.6795 53.2347 39.3123 53.2347 38.8592V35.6054ZM69.9072 50.9858L68.0017 50.7471C67.4224 49.3298 66.5901 48.0188 65.5557 46.8845L66.9567 40.9492C67.0143 40.7052 66.9572 40.4484 66.8017 40.2518C66.6462 40.0553 66.4093 39.9406 66.1587 39.9404L65.9795 39.9404H65.9766C63.651 39.9404 61.555 41.4036 60.7306 43.5499C60.1475 43.3182 59.5481 43.1273 58.9368 42.9826C58.4959 42.8784 58.054 43.1511 57.9497 43.5921C57.8455 44.0331 58.1183 44.475 58.5592 44.5792C60.6473 45.0731 62.51 46.129 63.9782 47.5944C64.0318 47.6729 64.0987 47.7425 64.1773 47.7988C65.2475 48.9221 66.0935 50.2699 66.6423 51.7802C66.7474 52.0696 67.0059 52.2759 67.3114 52.3141L69.7035 52.6136C70.0775 52.6604 70.3595 52.9799 70.3595 53.3568V57.4926C70.3595 57.8694 70.0774 58.1889 69.7035 58.2358L67.4868 58.5133C67.168 58.5531 66.9018 58.7755 66.8058 59.0822C66.1482 61.1835 64.8987 63.0415 63.1922 64.4554C63.0041 64.6113 62.8952 64.8429 62.8952 65.0871V69.6213C62.8952 70.0282 62.5641 70.3593 62.1573 70.3593H57.3989C56.9919 70.3593 56.6608 70.0282 56.6608 69.6213V67.8932C56.6608 67.4401 56.2935 67.0729 55.8405 67.0729H48.9488C48.4958 67.0729 48.1285 67.4401 48.1285 67.8932V69.6213C48.1285 70.0282 47.7974 70.3593 47.3904 70.3593H42.632C42.2251 70.3593 41.894 70.0282 41.894 69.6213V66.4197C41.894 66.1189 41.7294 65.8423 41.4651 65.6988C37.7834 63.6998 35.4961 59.8582 35.4961 55.6732C35.4961 49.3873 40.61 44.2734 46.8959 44.2734H47.9238C48.3768 44.2734 48.7441 43.9062 48.7441 43.4531C48.7441 43 48.3768 42.6328 47.9238 42.6328H46.8959C40.8065 42.6328 35.6792 46.8284 34.2514 52.4806H33.6504C32.5421 52.4806 31.6406 51.579 31.6406 50.4709C31.6406 49.3627 32.5421 48.4611 33.6504 48.4611C34.1034 48.4611 34.4707 48.0938 34.4707 47.6408C34.4707 47.1877 34.1034 46.8205 33.6504 46.8205C31.6376 46.8205 30 48.458 30 50.4709C30 52.4837 31.6376 54.1212 33.6504 54.1212H33.9482C33.8875 54.6303 33.8555 55.148 33.8555 55.6732C33.8555 60.2956 36.2946 64.5516 40.2533 66.8973V69.6213C40.2533 70.9329 41.3204 72 42.6319 72H47.3903C48.7019 72 49.7689 70.9329 49.7689 69.6213V68.7136H55.0201V69.6213C55.0201 70.9329 56.0871 72 57.3987 72H62.1571C63.4686 72 64.5357 70.9329 64.5357 69.6213V65.4653C66.2012 64.0005 67.4581 62.1527 68.202 60.0772L69.9071 59.8637C71.1002 59.7144 71.9999 58.695 71.9999 57.4926V53.3568C71.9999 52.1545 71.1003 51.1351 69.9072 50.9858ZM64.1781 45.5791C63.5661 45.0785 62.9107 44.6351 62.2213 44.2543C62.6745 42.9521 63.78 41.9831 65.0983 41.6806L64.1781 45.5791ZM62.6541 50.8302C62.5016 50.6776 62.29 50.5898 62.0742 50.5898C61.8585 50.5898 61.6469 50.6776 61.4943 50.8302C61.3417 50.9827 61.2539 51.1944 61.2539 51.4101C61.2539 51.6259 61.3416 51.8375 61.4943 51.9901C61.6469 52.1427 61.8585 52.2304 62.0742 52.2304C62.29 52.2304 62.5016 52.1427 62.6541 51.9901C62.8067 51.8375 62.8946 51.6259 62.8946 51.4101C62.8946 51.1944 62.8067 50.9827 62.6541 50.8302ZM39.3465 55.6732C39.3465 55.2201 38.9791 54.8529 38.5261 54.8529C38.0732 54.8529 37.7058 55.2201 37.7058 55.6732L37.7059 55.7167C37.7087 56.168 38.0755 56.532 38.5261 56.532H38.5313C38.9843 56.5291 39.3493 56.1596 39.3465 55.7065L39.3465 55.6732ZM39.8435 58.3734C40.4385 59.9265 41.5516 61.2598 42.9776 62.1276C43.3645 62.3631 43.4875 62.8677 43.252 63.2548C43.0975 63.5086 42.8272 63.6487 42.5503 63.6487C42.4051 63.6487 42.258 63.6101 42.1248 63.5291C40.3901 62.4735 39.0358 60.851 38.3115 58.9604C38.1494 58.5373 38.3609 58.063 38.784 57.9009C39.2069 57.7387 39.6813 57.9502 39.8435 58.3734ZM47.3906 33.9418C45.4908 33.9418 43.9453 35.4873 43.9453 37.3871C43.9453 39.2868 45.4908 40.8324 47.3906 40.8324C49.2903 40.8324 50.8359 39.2868 50.8359 37.3871C50.8359 35.4873 49.2903 33.9418 47.3906 33.9418ZM47.3906 39.1917C46.3955 39.1917 45.5859 38.3822 45.5859 37.3871C45.5859 36.3919 46.3955 35.5824 47.3906 35.5824C48.3857 35.5824 49.1953 36.3919 49.1953 37.3871C49.1953 38.3822 48.3857 39.1917 47.3906 39.1917ZM56.9882 47.3906H57.7265C58.1796 47.3906 58.5468 47.7578 58.5468 48.2109C58.5468 48.664 58.1795 49.0312 57.7265 49.0312H47.0625C46.6095 49.0312 46.2422 48.664 46.2422 48.2109C46.2422 47.7578 46.6095 47.3906 47.0625 47.3906H51.1216C50.7973 46.8653 50.6096 46.2472 50.6097 45.5859C50.6097 43.6861 52.1552 42.1406 54.055 42.1406C55.9547 42.1406 57.5003 43.6861 57.5003 45.5859C57.5003 46.2472 57.3126 46.8653 56.9882 47.3906ZM52.2503 45.5859C52.2503 46.581 53.0598 47.3906 54.055 47.3906C55.05 47.3906 55.8596 46.581 55.8596 45.5859C55.8596 44.5908 55.0501 43.7812 54.055 43.7812C53.0598 43.7812 52.2503 44.5908 52.2503 45.5859Z" fill="#0EF5FF"/>
</g>
<defs>
<filter id="filter0_d" x="0" y="0" width="102" height="102" filterUnits="userSpaceOnUse" color-interpolation-filters="sRGB">
<feFlood flood-opacity="0" result="BackgroundImageFix"/>
<feColorMatrix in="SourceAlpha" type="matrix" values="0 0 0 0 0 0 0 0 0 0 0 0 0 0 0 0 0 0 127 0"/>
<feOffset/>
<feGaussianBlur stdDeviation="15"/>
<feColorMatrix type="matrix" values="0 0 0 0 0.054902 0 0 0 0 0.960784 0 0 0 0 1 0 0 0 0.8 0"/>
<feBlend mode="normal" in2="BackgroundImageFix" result="effect1_dropShadow"/>
<feBlend mode="normal" in="SourceGraphic" in2="effect1_dropShadow" result="shape"/>
</filter>
</defs>
</svg>

<svg width="102" height="102" viewBox="0 0 102 102" fill="none" xmlns="http://www.w3.org/2000/svg"><g filter="url(#filter0_d)"><path fill-rule="evenodd" clip-rule="evenodd" d="M46.57 30.82a.82.82 0 011.64 0v1.395a.82.82 0 11-1.64 0V30.82zm8.065 1.23a.827.827 0 00-.58-.241.827.827 0 00-.58.24.827.827 0 00-.24.58.821.821 0 00.82.82.827.827 0 00.58-.24.827.827 0 00.24-.58.829.829 0 00-.24-.58zm-1.4 3.555a.82.82 0 011.64 0v3.254a.82.82 0 01-1.64 0v-3.254zm16.672 15.38l-1.905-.238a13.102 13.102 0 00-2.446-3.862l1.4-5.936a.82.82 0 00-.797-1.009h-.182a5.652 5.652 0 00-5.246 3.61 12.918 12.918 0 00-1.794-.567.82.82 0 10-.378 1.596 11.37 11.37 0 015.42 3.015.82.82 0 00.198.205 11.417 11.417 0 012.465 3.981.82.82 0 00.67.534l2.392.3a.75.75 0 01.656.743v4.136a.75.75 0 01-.656.743l-2.217.277a.82.82 0 00-.681.57 11.38 11.38 0 01-3.614 5.372.82.82 0 00-.297.632v4.534a.739.739 0 01-.738.738H57.4a.739.739 0 01-.738-.738v-1.728a.82.82 0 00-.82-.82H48.95a.82.82 0 00-.82.82v1.728a.739.739 0 01-.739.738h-4.758a.739.739 0 01-.738-.738V66.42a.82.82 0 00-.429-.721 11.401 11.401 0 01-5.969-10.026c0-6.286 5.114-11.4 11.4-11.4h1.028a.82.82 0 100-1.64h-1.028c-6.09 0-11.217 4.195-12.645 9.848h-.6a2.012 2.012 0 01-2.01-2.01c0-1.108.901-2.01 2.01-2.01a.82.82 0 000-1.64A3.655 3.655 0 0030 50.47a3.654 3.654 0 003.65 3.65h.298a13.04 13.04 0 006.305 12.776v2.724A2.381 2.381 0 0042.632 72h4.758a2.381 2.381 0 002.379-2.379v-.907h5.251v.907A2.381 2.381 0 0057.4 72h4.758a2.381 2.381 0 002.379-2.379v-4.156a13.014 13.014 0 003.666-5.388l1.705-.213A2.393 2.393 0 0072 57.493v-4.136c0-1.203-.9-2.222-2.093-2.371zm-5.729-5.406a13.08 13.08 0 00-1.957-1.325 4.005 4.005 0 012.877-2.573l-.92 3.898zm-1.524 5.251a.826.826 0 00-.58-.24.826.826 0 00-.58.24.826.826 0 00-.24.58c0 .216.088.428.24.58.153.153.364.24.58.24a.826.826 0 00.58-.24.827.827 0 00.24-.58.826.826 0 00-.24-.58zm-23.308 4.843a.82.82 0 00-1.64 0v.044a.82.82 0 00.82.815h.005a.82.82 0 00.816-.825v-.034zm.498 2.7a7.603 7.603 0 003.134 3.755.82.82 0 01-.853 1.401 9.252 9.252 0 01-3.813-4.569.82.82 0 111.532-.587zm7.547-24.431a3.45 3.45 0 00-3.446 3.445 3.45 3.45 0 003.446 3.445 3.45 3.45 0 003.445-3.445 3.45 3.45 0 00-3.445-3.445zm0 5.25c-.995 0-1.805-.81-1.805-1.805 0-.995.81-1.805 1.805-1.805.995 0 1.804.81 1.804 1.805 0 .995-.81 1.805-1.804 1.805zm9.597 8.199h.739a.82.82 0 110 1.64H47.063a.82.82 0 110-1.64h4.059a3.424 3.424 0 01-.512-1.805 3.45 3.45 0 013.445-3.445 3.45 3.45 0 013.445 3.445 3.42 3.42 0 01-.512 1.805zm-4.738-1.805c0 .995.81 1.805 1.805 1.805.995 0 1.805-.81 1.805-1.805 0-.995-.81-1.805-1.805-1.805-.995 0-1.805.81-1.805 1.805z" fill="#0EF5FF"/></g><defs><filter id="filter0_d" x="0" y="0" width="102" height="102" filterUnits="userSpaceOnUse" color-interpolation-filters="sRGB"><feFlood flood-opacity="0" result="BackgroundImageFix"/><feColorMatrix in="SourceAlpha" values="0 0 0 0 0 0 0 0 0 0 0 0 0 0 0 0 0 0 127 0"/><feOffset/><feGaussianBlur stdDeviation="15"/><feColorMatrix values="0 0 0 0 0.054902 0 0 0 0 0.960784 0 0 0 0 1 0 0 0 0.8 0"/><feBlend in2="BackgroundImageFix" result="effect1_dropShadow"/><feBlend in="SourceGraphic" in2="effect1_dropShadow" result="shape"/></filter></defs></svg>
